X:1
T:Nine Pound Hammer (Roll On, Buddy)
M:4/4
L:1/4
K:G
 z D D E| G/2 G/2- G3| z B3/4 B/4 B3/4 B/4 A| G/2 E/2- E3| z G/2G/2 A G|\
E/2-D/2 D3| z D/2D/2 E G| G4| z d d e| B/2 G/2- G3| z B3/4 B/4 B3/4- A/4 G|\
 E4| z2 _B3/4 G/4 G|E/2-D/2 D3| z D3/4 D/4 E G| G4|:|
